src/svg/black/oot.svg

<svg xmlns="http://www.w3.org/2000/svg" width="32" height="32" viewBox="0 0 32 32"><path d="M16,32 C7.163444,32 0,24.836556 0,16 C0,7.163444 7.163444,0 16,0 C24.836556,0 32,7.163444 32,16 C32,24.836556 24.836556,32 16,32 Z M16.3455283,24.9929957 C16.5616439,24.9719331 16.970454,24.9536053 17.3719691,24.889266 C19.4900739,24.5498173 21.2898368,23.5947551 22.7066581,21.986848 C24.6237654,19.811162 25.3453983,17.2649851 24.847176,14.4074751 C24.4534839,12.1492659 23.3257765,10.2996425 21.5133913,8.89598033 C19.4826349,7.32324151 17.1712595,6.73660706 14.6337859,7.10757766 C12.7600169,7.38153552 11.1228566,8.18743223 9.7707308,9.51216961 C7.67643079,11.5641188 6.7665667,14.0674507 7.06052796,16.9890602 C7.19481426,18.323969 7.62651737,19.5664231 8.33831157,20.7074504 C8.38011406,20.7744285 8.3888969,20.8315231 8.36466009,20.9068974 C8.15056031,21.5738481 7.82031583,22.172861 7.35506514,22.6999061 C6.6443268,23.5050351 7.05529665,24.7466735 8.10184673,24.9602263 C8.48771588,25.0389592 8.87574474,24.9848873 9.25988612,24.9345578 C10.1661027,24.8158587 11.0121832,24.5128258 11.810174,24.0725261 C11.8902755,24.0283378 11.9506035,24.0306408 12.030609,24.070415 C13.3293178,24.7151996 14.7068803,25.0106998 16.3455283,24.9929957 Z M9.91671932,22.604981 C10.0203857,22.3803877 10.116373,22.1811699 10.205108,21.9787002 C10.4103609,21.510269 10.5701265,21.0273377 10.6850447,20.5278803 C10.7611947,20.1969879 10.6976297,19.9045849 10.5141339,19.6291344 C10.0355837,18.9106813 9.69728157,18.1306025 9.55058091,17.2804748 C9.10466634,14.6965068 9.88237718,12.5435467 11.8954452,10.8629093 C12.9333884,9.99641562 14.1532277,9.53187606 15.5041963,9.43842439 C17.507399,9.29992614 19.2357579,9.94219979 20.6570639,11.3504253 C21.8361619,12.5187044 22.4872227,13.9541178 22.5619329,15.6160435 C22.6786642,18.2106734 21.5992864,20.2145267 19.4287991,21.6078255 C18.1743511,22.4130665 16.7714427,22.6957671 15.2836387,22.5369046 C14.3689859,22.4391882 13.516085,22.1555813 12.7202965,21.6998911 C12.3487188,21.4871327 12.0022045,21.5003001 11.6503042,21.7477098 C11.1578358,22.0939021 10.6299587,22.3756432 10.0557943,22.5647855 C10.0187325,22.5769934 9.98076422,22.5865358 9.91671932,22.604981 Z M16.0074047,12.1932442 C15.9781285,12.2446879 15.961864,12.2702232 15.9484791,12.2972512 C15.5685825,13.0650155 15.1881526,13.83246 14.8109757,14.6015038 C14.7728474,14.6793891 14.7309329,14.728274 14.6385184,14.7409617 C14.0622743,14.8199131 13.4867768,14.9040356 12.9110661,14.9864522 C12.6057196,15.0301128 12.3004265,15.0739332 11.9951334,15.1177004 C11.9848948,15.1339598 11.9746028,15.1501659 11.9643641,15.1664253 C12.005852,15.1921205 12.053739,15.2112587 12.0878679,15.2445238 C12.6858157,15.8276239 13.2823771,16.4122699 13.8784052,16.9973957 C13.9337579,17.0517181 13.9898039,17.0981508 13.9712463,17.1994922 C13.8468361,17.8804686 13.7299981,18.5628844 13.6116137,19.2449803 C13.576525,19.44745 13.5445826,19.6503995 13.5072008,19.8772851 C13.5659131,19.8494041 13.5976956,19.835597 13.6282515,19.8194975 C14.3747132,19.4268725 15.122188,19.0361134 15.8661433,18.6386373 C15.969703,18.583302 16.0471328,18.588473 16.1477595,18.642369 C16.8873954,19.0385123 17.6301242,19.4288983 18.3721597,19.8204571 C18.4039955,19.8372496 18.4392442,19.8475916 18.4846249,19.8656636 C18.4819586,19.8251483 18.4824385,19.8031314 18.4788656,19.7817543 C18.3362711,18.9371709 18.1966628,18.0921076 18.0466559,17.2488569 C18.0247388,17.1255519 18.0575878,17.0515049 18.1414701,16.9711141 C18.6192205,16.5129716 19.0941446,16.0518439 19.5676822,15.5893301 C19.7190222,15.4415027 19.8631099,15.2863185 20.0179162,15.126763 C19.9815476,15.1187133 19.953018,15.1105036 19.9239019,15.1062921 C19.0847058,14.9849062 18.245723,14.8620277 17.4058337,14.7451731 C17.2937418,14.7296067 17.2268706,14.6916503 17.1764239,14.5835918 C16.9830094,14.1694831 16.7777032,13.7608653 16.5763964,13.3504883 C16.3910874,12.9727367 16.2051386,12.5953049 16.0074047,12.1932442 Z"/></svg>

<svg xmlns="http://www.w3.org/2000/svg" width="32" height="32" viewBox="0 0 32 32"><path d="M16 32C7.163 32 0 24.837 0 16S7.163 0 16 0s16 7.163 16 16-7.163 16-16 16zm.346-7.007c.216-.021.624-.04 1.026-.104 2.118-.34 3.918-1.294 5.335-2.902 1.917-2.176 2.638-4.722 2.14-7.58-.394-2.258-1.521-4.107-3.334-5.511-2.03-1.573-4.342-2.16-6.88-1.788a8.583 8.583 0 0 0-4.862 2.404c-2.095 2.052-3.004 4.555-2.71 7.477a8.573 8.573 0 0 0 1.277 3.718.22.22 0 0 1 .027.2 4.963 4.963 0 0 1-1.01 1.793c-.71.805-.3 2.047.747 2.26.386.079.774.025 1.158-.025a7.183 7.183 0 0 0 2.55-.862c.08-.045.14-.042.22-.003 1.3.645 2.677.94 4.316.923zm-6.43-2.388c.104-.225.2-.424.29-.626.204-.469.364-.952.479-1.451a1.1 1.1 0 0 0-.17-.899c-.48-.718-.818-1.498-.964-2.349-.446-2.583.331-4.736 2.344-6.417 1.038-.867 2.258-1.331 3.61-1.425 2.002-.138 3.73.504 5.152 1.912 1.18 1.169 1.83 2.604 1.905 4.266.117 2.595-.963 4.599-3.133 5.992-1.255.805-2.658 1.088-4.145.929a6.497 6.497 0 0 1-2.564-.837c-.371-.213-.718-.2-1.07.048a6.078 6.078 0 0 1-1.594.817c-.037.012-.075.022-.14.04zm6.091-10.412c-.029.052-.045.077-.059.104-.38.768-.76 1.535-1.137 2.305-.038.077-.08.126-.172.139-.577.079-1.152.163-1.728.245l-.916.132-.03.048c.04.026.089.045.123.079.598.583 1.194 1.167 1.79 1.752.056.055.112.101.093.202-.124.681-.241 1.364-.36 2.046l-.104.632c.059-.028.09-.041.121-.058.747-.392 1.494-.783 2.238-1.18.104-.056.181-.05.282.003.74.397 1.482.787 2.224 1.178.032.017.067.028.113.046-.003-.04-.003-.063-.006-.084-.143-.845-.282-1.69-.432-2.533-.022-.123.01-.197.094-.278.478-.458.953-.92 1.427-1.382.151-.147.295-.303.45-.462-.036-.008-.065-.016-.094-.02-.84-.122-1.678-.245-2.518-.362-.112-.015-.18-.053-.23-.161-.193-.415-.398-.823-.6-1.234-.185-.377-.37-.755-.569-1.157z"/></svg>
